X:0598
T:Southwark Grenadier's March.
M:C|
L:1/8
Q:1/2=80
I: :: ::
Z:Jack Campin * www.campin.me.uk * 2009
K:D
A2|d4   e4  |f2d2 d2ag|f2d2  d2  A2   |d2A2F2
ED|d4   e4  |f2d2 d2ag|fgab  a2 ^g2   |a6  ::
cd|e4   f4  |e2c2 c2A2|dede Te3 (d/e/)|f6
ag|f2a2 e2a2|d2A2 dede|f2gf Te3  d    |d6  :|

